img/breaf_bg.svg

<svg width="584" height="325" viewBox="0 0 584 325" fill="none" xmlns="http://www.w3.org/2000/svg">
<path opacity="0.1" d="M446.547 476.998L39.906 368.129C33.2277 366.353 26.951 363.332 21.4351 359.239C15.9192 355.146 11.2722 350.062 7.76022 344.277C4.24821 338.491 1.94004 332.119 0.967769 325.524C-0.00449068 318.929 0.378241 312.242 2.09408 305.843L73.944 37.9161C76.2377 29.3622 80.839 21.5874 87.2858 15.3725C93.7327 9.15762 101.798 4.72134 110.672 2.50918C119.547 0.297007 128.917 0.386824 137.843 2.7696C146.769 5.15238 154.936 9.74425 161.524 16.0841L313.104 162.168L517.214 111.312C526.092 109.113 535.462 109.217 544.385 111.613C553.307 114.008 561.467 118.612 568.045 124.961C574.624 131.31 579.389 139.182 581.862 147.785C584.335 156.388 584.429 165.42 582.135 173.973L510.285 441.901C506.828 454.794 498.174 465.731 486.224 472.311C474.274 478.891 460.004 480.577 446.547 476.998Z" fill="#281464"/>
</svg>

<svg width="584" height="325" fill="none" xmlns="http://www.w3.org/2000/svg"><path opacity=".1" d="M446.547 476.998 39.906 368.129a54.527 54.527 0 0 1-18.47-8.89c-5.517-4.093-10.164-9.177-13.676-14.962-3.512-5.786-5.82-12.158-6.792-18.753a48.572 48.572 0 0 1 1.126-19.681l71.85-267.927c2.294-8.554 6.895-16.329 13.342-22.543 6.447-6.215 14.512-10.652 23.386-12.864 8.875-2.212 18.245-2.122 27.171.26 8.926 2.383 17.093 6.975 23.681 13.315l151.58 146.084 204.11-50.856c8.878-2.199 18.248-2.095 27.171.301 8.922 2.395 17.082 6.999 23.66 13.348 6.579 6.349 11.344 14.221 13.817 22.824 2.473 8.603 2.567 17.635.273 26.188l-71.85 267.928c-3.457 12.893-12.111 23.83-24.061 30.41-11.95 6.58-26.22 8.266-39.677 4.687Z" fill="#281464"/></svg>
